img/phone.svg

<svg width="24" height="24" viewBox="0 0 24 24" fill="none" xmlns="http://www.w3.org/2000/svg">
<path opacity="0.8" d="M12 0C5.373 0 0 5.373 0 12C0 18.627 5.373 24 12 24C18.627 24 24 18.627 24 12C24 5.373 18.627 0 12 0ZM15.227 18.184C13.637 18.086 10.51 16.26 9.05301 14.62C7.60001 12.979 6.15701 9.657 6.25201 8.064C6.25201 8.064 7.98399 5.773 8.77899 5.819C9.57999 5.867 11.822 8.395 10.974 9.147C10.134 9.894 9.33701 9.848 9.29001 10.641C9.24501 11.436 9.99098 12.282 10.735 13.124C11.487 13.97 12.233 14.809 13.03 14.854C13.825 14.904 13.874 14.111 14.714 13.359C15.558 12.611 17.804 15.143 17.755 15.938C17.711 16.73 15.227 18.184 15.227 18.184Z" fill="white"/>
</svg>

<svg width="24" height="24" fill="none" xmlns="http://www.w3.org/2000/svg"><path opacity=".8" d="M12 0C5.373 0 0 5.373 0 12s5.373 12 12 12 12-5.373 12-12S18.627 0 12 0zm3.227 18.184c-1.59-.098-4.717-1.924-6.174-3.564C7.6 12.979 6.157 9.657 6.252 8.064c0 0 1.732-2.291 2.527-2.245.801.048 3.043 2.576 2.195 3.328-.84.747-1.637.701-1.684 1.494-.045.795.701 1.641 1.445 2.483.752.846 1.498 1.685 2.295 1.73.795.05.844-.743 1.684-1.495.844-.748 3.09 1.784 3.041 2.579-.044.792-2.528 2.246-2.528 2.246z" fill="#fff"/></svg>
